X: 17
T: Ciebie ja, póki mi jedno żywota stanie,
C: Mikołaj Gomółka
%%abc-version 2.0
%%abcx-abcm2ps-target-version 5.9.1 (29 Sep 2008)
%%abc-creator hum2abc beta
%%abcx-conversion-date 2021/10/04 07:59:10
%%abc-edited-by Marta Lawrence
%%abcx-initial-encoding-date 2020-02-04
%%humdrum-veritas 33576215
%%humdrum-veritas-data 2211999345
%%linebreak <none>
%%barnumbers 0
L: 1/4
M: C
N: Derived from pl-wn--sd-xvi-qu-273--018_gomolka-mikolaj--ciebie-ja-poki-mi-jedno-zywota-stanie.krn
%%staves [1 2 3 4]
V: 1
V: 2 clef=alto
V: 3 clef=alto
V: 4 clef=bass
K: F
[V:1] G4G4 [|] 
[V:2] D4E4 [|] 
[V:3] =B,4C4 [|] 
[V:4] G,4C,4 [|] 
[V:1] A4z2A2 [|] 
[V:2] F4z2F2 [|] 
[V:3] C4z2D2 [|] 
[V:4] F,4z2D,2 [|] 
[V:1] =B2c2A4 [|] 
[V:2] G2E2D4 [|] 
[V:3] D2E2^FG2^F [|] 
[V:4] G,2C,2D,4 [|] 
[V:1] =B2c2A2A2 [|] 
[V:2] D2A2A2A2 [|] 
[V:3] G2E2^C2D4 [|] 
[V:4] G,2A,2A,2^F,2 [|] 
[V:1] B4A4 [|] 
[V:2] G2^FE^F4 [|] 
[V:3] D2D4 [|] 
[V:4] G,2G,,2D,4 [|] 
[V:1] A4A4 [|] 
[V:2] E4^F4 [|] 
[V:3] ^C4D4 [|] 
[V:4] A,,4D,4 [|] 
[V:1] =B4z2d2 [|] 
[V:2] G4z2=F2 [|] 
[V:3] D4z2B,2 [|] 
[V:4] G,,4z2B,,2 [|] 
[V:1] B2B2e4 [|] 
[V:2] G2>F2_ED_E2 [|] 
[V:3] B,2B,4A,2 [|] 
[V:4] E,2>D,2C,B,,C,2 [|] 
[V:1] d2c2B2AG [|] 
[V:2] F2F2F2_E2 [|] 
[V:3] B,2=C2D2CB, [|] 
[V:4] B,,2F,,2B,,2C,2 [|] 
[V:1] ^F2>E2FG2F [|] 
[V:2] D3C/B,/A,G,DC [|] 
[V:3] A,2>G,2A,B,A,2 [|] 
[V:4] D,8 [|] 
[V:1] !fermata!G8 |]  
[V:2] =B,8 |]  
[V:3] !fermata!G,8 |]  
[V:4] !fermata!G,,8 |]  


